!!!COM: Bach, Johann Sebastian
!!!CDT: 1685/3//-1750/7/28/
!!!OTL@@DE: Valet will ich dir geben
!!!AGN: 4-Part Chorale
!!!SCT: BH 024
!!!SCT: BWV 415
**harm	**root	**kern	**kern	**kern	**kern
!	!	!bass	!tenor	!alto	!soprno
*	*Iorgan	*Iorgan	*Iorgan	*Iorgan	*Iorgan
*M4/4	*M4/4	*M4/4	*M4/4	*M4/4	*M4/4
*met(c)	*met(c)	*met(c)	*met(c)	*met(c)	*met(c)
*MM60	*MM60	*MM60	*MM60	*MM60	*MM60
*k[b-e-a-]	*k[b-e-a-]	*k[b-e-a-]	*k[b-e-a-]	*k[b-e-a-]	*k[b-e-a-]
*E-:	*E-:	*E-:	*E-:	*E-:	*E-:
*>[A,A,B]	*>[A,A,B]	*>[A,A,B]	*>[A,A,B]	*>[A,A,B]	*>[A,A,B]
*>A	*>A	*>A	*>A	*>A	*>A
I	4DD	8E-	8G	4B-	4e-
.	.	8D	8F	.	.
=1	=1	=1	=1	=1	=1
I	4DD	8E-	8G	4e-	4b-
.	.	8F	8A-	.	.
Ib	4DD	8G	8B-	4e-	4b-
.	.	8E-	8G	.	.
IV	4GG	8A-	4A-	4e-	4cc
.	.	8G	.	.	.
viiob	4CC#	4F	8A-	[4a-	4dd
.	.	.	8B-	.	.
=2	=2	=2	=2	=2	=2
IVb	4GG	8C	4c	4a-]	2ee-
.	.	8D	.	.	.
I	4DD	4E-	8B-	8g	.
.	.	.	8A-	8f	.
I;	4DD;	4EE-;	4B-;	4g;	4ee-;
I	4DD	4e-	4b-	8b-	4gg
.	.	.	.	8cc	.
=3	=3	=3	=3	=3	=3
viioD7/vi	4AA#	4B	4a-	4dd	4ff
vi7	4BB	8c	4g	4cc	4ee-
.	.	8B-	.	.	.
viioD7/V	4GG#	4A	4g-	4cc	4ee-
V	4AA	4B-	4f	4b-	4dd
=4	=4	=4	=4	=4	=4
I;	2.DD;	2.E-;	2.gy;	2.b-;	2.ee-;
=:|!	=:|!	=:|!	=:|!	=:|!	=:|!
*>B	*>B	*>B	*>B	*>B	*>B
I	4DD	4E-	8g	4b-	8ee-
.	.	.	8a-	.	8ff
=5	=5	=5	=5	=5	=5
I	4DD	8e-	4b-	4ee-	4gg
.	.	8d	.	.	.
vi	4BB	8c	4e-	8ee-	4gg
.	.	8B-	.	8dd	.
Vb/V	8EE	8A	8f	8cc	4.ff
V7/V	8EE	8F	8e-	8a	.
iii	8FF#	8G	8d	8b-	.
viio/V	8GG#	8A	8c	8cc	8ee-
!!linebreak: 2
=6	=6	=6	=6	=6	=6
V	8AA	8B-	4B-	8f	8dd
v7/vii	8GG#	8A	.	8g	8cc
Vb/iii	4CC#	8G	4A	4a	4dd
.	.	8F#	.	.	.
iii;	4FF#;	4G;	4d;	4g;	4b-;
iii7	4FF#	4G	8g	[4b-	4dd
.	.	.	8f	.	.
=7	=7	=7	=7	=7	=7
vii/V	4GG#	8c	4e-	8b-]	4ee-
.	.	8C	.	8a	.
Vb	4AA	8D	4f	[4b-	4dd
.	.	8E-	.	.	.
II	8EE	8F	8f	4b-]	4cc
vi7b	8BB	8E-	8g	.	.
II7	4EE	8F	8f	4a	4cc
.	.	8FF	8e-	.	.
=8	=8	=8	=8	=8	=8
V;	2.AA;	2.BB-;	2.d;	2.f;	2.b-;
Vb	4AA	4D	4B-	4f	4b-
=9	=9	=9	=9	=9	=9
I	4DD	8E-	4B-	4e-	8g
.	.	8F	.	.	8a-
I7	4DD	8G	8e-	4e-	4b-
.	.	8E-	8d-	.	.
IV	8GG	4A-	8c	8e-	4cc
viio7c	8CC#	.	8d	8f	.
I7b	4DD	8G	8e-	4g	4b-
.	.	8F	8d-	.	.
=10	=10	=10	=10	=10	=10
V7b/ii	4BB	4E	2c	4g	4b-
ii	4EE	4F	.	4f	8a-
.	.	.	.	.	8g
VI;	4BB;	4C;	4c;	4e;	4g;
V7b/IV	4DD	4GG	4d-	4e-	4b-
=11	=11	=11	=11	=11	=11
IV	4GG	8AA-	4c	4e-	4a-
.	.	8BB-	.	.	.
vi7	4BB	8C	4c	[4e-	4g
.	.	8BB-	.	.	.
ii7	4EE	8AA-	4c	4e-]	4f
.	.	8FF	.	.	.
V	4AA	4BB-	8B-	4d	4f
.	.	.	8A-	.	.
=12	=12	=12	=12	=12	=12
I;	2.DD;	2.EE-;	2.G;	2.B-;	2.e-;
==	==	==	==	==	==
*-	*-	*-	*-	*-	*-
!!chor2scor: -l 2 -s 0.6 -o %b.pmx
!!!YEC: Copyright 1994, David Huron
!!!YEC: Changes/Additions 2001 by Craig Stuart Sapp
!!!YEN: United States of America
!!!SMA: 371 Bach Chorales, edited by Ludwig Erk, C.F. Peters
!!!PDT: 1850, 1865
!!!ONB: Harmony and Root analysis done manually
